docs/img/icons/youtube.svg

<?xml version="1.0" encoding="UTF-8" standalone="no"?>
<svg
   xmlns:dc="http://purl.org/dc/elements/1.1/"
   xmlns:cc="http://creativecommons.org/ns#"
   xmlns:rdf="http://www.w3.org/1999/02/22-rdf-syntax-ns#"
   xmlns:svg="http://www.w3.org/2000/svg"
   xmlns="http://www.w3.org/2000/svg"
   xmlns:sodipodi="http://sodipodi.sourceforge.net/DTD/sodipodi-0.dtd"
   xmlns:inkscape="http://www.inkscape.org/namespaces/inkscape"
   enable-background="new 0 0 32 32"
   height="32px"
   id="Layer_1"
   version="1.0"
   viewBox="0 0 32 32"
   width="32px"
   xml:space="preserve"
   inkscape:version="0.91 r13725"
   sodipodi:docname="youtube.svg"><metadata
     id="metadata25"><rdf:RDF><cc:Work
         rdf:about=""><dc:format>image/svg+xml</dc:format><dc:type
           rdf:resource="http://purl.org/dc/dcmitype/StillImage" /></cc:Work></rdf:RDF></metadata><defs
     id="defs23" /><sodipodi:namedview
     pagecolor="#ffffff"
     bordercolor="#666666"
     borderopacity="1"
     objecttolerance="10"
     gridtolerance="10"
     guidetolerance="10"
     inkscape:pageopacity="0"
     inkscape:pageshadow="2"
     inkscape:window-width="1920"
     inkscape:window-height="1137"
     id="namedview21"
     showgrid="false"
     inkscape:zoom="7.375"
     inkscape:cx="-6.440678"
     inkscape:cy="15.864407"
     inkscape:window-x="-8"
     inkscape:window-y="-8"
     inkscape:window-maximized="1"
     inkscape:current-layer="Layer_1" /><path
     style="fill:#505050;fill-opacity:1"
     d="M 15.986328 4 C 15.986328 4 9.272875 4.0006562 4.796875 4.3476562 C 4.171875 4.4246562 2.8097969 4.4310625 1.5917969 5.7890625 C 0.63379688 6.8250625 0.3203125 9.1796875 0.3203125 9.1796875 C 0.3203125 9.1796875 0 11.940172 0 14.701172 L 0 17.289062 C 0 20.052062 0.3203125 22.8125 0.3203125 22.8125 C 0.3203125 22.8125 0.63279688 25.163266 1.5917969 26.197266 C 2.8097969 27.555266 4.4051875 27.51425 5.1171875 27.65625 C 7.6761875 27.91825 15.994141 28 15.994141 28 C 15.994141 28 22.716359 27.987531 27.193359 27.644531 C 27.818359 27.564531 29.181437 27.557219 30.398438 26.199219 C 31.356437 25.165219 31.669922 22.8125 31.669922 22.8125 C 31.669922 22.8125 31.990234 20.051063 31.990234 17.289062 L 31.990234 14.701172 C 31.990234 11.939172 31.669922 9.1796875 31.669922 9.1796875 C 31.669922 9.1796875 31.357437 6.8250625 30.398438 5.7890625 C 29.181437 4.4310625 27.818359 4.4246562 27.193359 4.3476562 C 22.716359 4.0006562 16.001953 4 16.001953 4 L 15.986328 4 z M 12 10 L 22 16 L 12 22 L 12 10 z "
     id="path5" /><g
     id="g9" /><g
     id="g11" /><g
     id="g13" /><g
     id="g15" /><g
     id="g17" /><g
     id="g19" /></svg>

<?xml version="1.0" ?><!DOCTYPE svg  PUBLIC '-//W3C//DTD SVG 1.0//EN'  'http://www.w3.org/TR/2001/REC-SVG-20010904/DTD/svg10.dtd'><svg enable-background="new 0 0 32 32" height="32px" id="Layer_1" version="1.0" viewBox="0 0 32 32" width="32px" xml:space="preserve" xmlns="http://www.w3.org/2000/svg" xmlns:xlink="http://www.w3.org/1999/xlink"><g><path d="M31.67,9.179c0,0-0.312-2.353-1.271-3.389c-1.217-1.358-2.58-1.366-3.205-1.443C22.717,4,16.002,4,16.002,4   h-0.015c0,0-6.715,0-11.191,0.347C4.171,4.424,2.809,4.432,1.591,5.79C0.633,6.826,0.32,9.179,0.32,9.179S0,11.94,0,14.701v2.588   c0,2.763,0.32,5.523,0.32,5.523s0.312,2.352,1.271,3.386c1.218,1.358,2.815,1.317,3.527,1.459C7.677,27.919,15.995,28,15.995,28   s6.722-0.012,11.199-0.355c0.625-0.08,1.988-0.088,3.205-1.446c0.958-1.034,1.271-3.386,1.271-3.386s0.32-2.761,0.32-5.523v-2.588   C31.99,11.94,31.67,9.179,31.67,9.179z" fill="#E02F2F"/><polygon fill="#FFFFFF" points="12,10 12,22 22,16  "/></g><g/><g/><g/><g/><g/><g/></svg>
